X:162
T:Air à danser
O:england
C:F. Paris
M:2/4
L:1/16
K:G
A2d2 d2~c2 |ABAG AGFG|A2d2 d2c2 |ABAG A3A|\
A2d2 d2~c2 |ABAG AGFG|A2d2 d2~c2 |ABAF G2~G2||
A2AB ~c3B |ABAG ~F2D2|+D3G3+A FGAB |cAFA ~G4|\
AGAB ~c2~B2 |ABAG ~F2D2|+D3G3+A FGAB |cAFA ~G4||


